svgs/duotone/beer-mug-empty.svg

<svg xmlns="http://www.w3.org/2000/svg" viewBox="0 0 512 512"><!--! Font Awesome Pro 6.6.0 by @fontawesome - https://fontawesome.com License - https://fontawesome.com/license (Commercial License) Copyright 2024 Fonticons, Inc. --><defs><style>.fa-secondary{opacity:.4}</style></defs><path class="fa-secondary" d="M32 64c0-17.7 14.3-32 32-32l288 0c17.7 0 32 14.3 32 32l0 32 51.2 0c42.4 0 76.8 34.4 76.8 76.8l0 102.1c0 30.4-17.9 57.9-45.6 70.2L384 381.7l0 34.3c0 35.3-28.7 64-64 64L96 480c-35.3 0-64-28.7-64-64L32 64zm96 80l0 224c0 8.8 7.2 16 16 16s16-7.2 16-16l0-224c0-8.8-7.2-16-16-16s-16 7.2-16 16zm64 0l0 224c0 8.8 7.2 16 16 16s16-7.2 16-16l0-224c0-8.8-7.2-16-16-16s-16 7.2-16 16zm64 0l0 224c0 8.8 7.2 16 16 16s16-7.2 16-16l0-224c0-8.8-7.2-16-16-16s-16 7.2-16 16zm128 16l0 151.6 56.4-25.1c4.6-2.1 7.6-6.6 7.6-11.7l0-102.1c0-7.1-5.7-12.8-12.8-12.8L384 160z"/><path class="fa-primary" d="M144 128c8.8 0 16 7.2 16 16l0 224c0 8.8-7.2 16-16 16s-16-7.2-16-16l0-224c0-8.8 7.2-16 16-16zm64 0c8.8 0 16 7.2 16 16l0 224c0 8.8-7.2 16-16 16s-16-7.2-16-16l0-224c0-8.8 7.2-16 16-16zm64 0c8.8 0 16 7.2 16 16l0 224c0 8.8-7.2 16-16 16s-16-7.2-16-16l0-224c0-8.8 7.2-16 16-16z"/></svg>

<svg xmlns="http://www.w3.org/2000/svg" viewBox="0 0 512 512"><!--! Font Awesome Pro 6.5.2 by @fontawesome - https://fontawesome.com License - https://fontawesome.com/license (Commercial License) Copyright 2024 Fonticons, Inc. --><defs><style>.fa-secondary{opacity:.4}</style></defs><path class="fa-secondary" d="M32 64c0-17.7 14.3-32 32-32H352c17.7 0 32 14.3 32 32V96h51.2c42.4 0 76.8 34.4 76.8 76.8V274.9c0 30.4-17.9 57.9-45.6 70.2L384 381.7V416c0 35.3-28.7 64-64 64H96c-35.3 0-64-28.7-64-64V64zM384 311.6l56.4-25.1c4.6-2.1 7.6-6.6 7.6-11.7V172.8c0-7.1-5.7-12.8-12.8-12.8H384V311.6zM160 144c0-8.8-7.2-16-16-16s-16 7.2-16 16V368c0 8.8 7.2 16 16 16s16-7.2 16-16V144zm64 0c0-8.8-7.2-16-16-16s-16 7.2-16 16V368c0 8.8 7.2 16 16 16s16-7.2 16-16V144zm64 0c0-8.8-7.2-16-16-16s-16 7.2-16 16V368c0 8.8 7.2 16 16 16s16-7.2 16-16V144z"/><path class="fa-primary" d="M144 128c8.8 0 16 7.2 16 16V368c0 8.8-7.2 16-16 16s-16-7.2-16-16V144c0-8.8 7.2-16 16-16zm64 0c8.8 0 16 7.2 16 16V368c0 8.8-7.2 16-16 16s-16-7.2-16-16V144c0-8.8 7.2-16 16-16zm64 0c8.8 0 16 7.2 16 16V368c0 8.8-7.2 16-16 16s-16-7.2-16-16V144c0-8.8 7.2-16 16-16z"/></svg>
